svgs/light/train-subway.svg

<svg xmlns="http://www.w3.org/2000/svg" viewBox="0 0 448 512"><!-- Font Awesome Pro 6.0.0-alpha2 by @fontawesome - https://fontawesome.com License - https://fontawesome.com/license (Commercial License) --><path d="M448 352V96C448 42.98 405.02 0 352 0H96C42.98 0 0 42.98 0 96V352C0 398.02 32.42 436.383 75.641 445.734L36.687 484.688C30.437 490.938 30.437 501.063 36.687 507.312C39.812 510.438 43.906 512 48 512S56.188 510.438 59.312 507.312L118.625 448H329.375L388.687 507.312C391.812 510.438 395.906 512 400 512S408.188 510.438 411.312 507.312C417.562 501.062 417.562 490.937 411.312 484.688L372.359 445.734C415.58 436.383 448 398.02 448 352ZM240 32H352C387.291 32 416 60.711 416 96V224H240V32ZM32 96C32 60.711 60.711 32 96 32H208V224H32V96ZM352 416H96C60.711 416 32 387.289 32 352V256H416V352C416 387.289 387.291 416 352 416ZM112 312C98.746 312 88 322.744 88 336C88 349.254 98.746 360 112 360C125.256 360 136 349.254 136 336C136 322.744 125.256 312 112 312ZM336 312C322.746 312 312 322.744 312 336C312 349.254 322.746 360 336 360C349.256 360 360 349.254 360 336C360 322.744 349.256 312 336 312Z"/></svg>

<svg xmlns="http://www.w3.org/2000/svg" viewBox="0 0 448 512"><!--! Font Awesome Pro 6.4.0 by @fontawesome - https://fontawesome.com License - https://fontawesome.com/license (Commercial License) Copyright 2023 Fonticons, Inc. --><path d="M208 32l0 192H32V96c0-35.3 28.7-64 64-64H208zm32 0H352c35.3 0 64 28.7 64 64V224H240l0-192zM32 352V256H416v96c0 35.3-28.7 64-64 64H96c-35.3 0-64-28.7-64-64zM96 0C43 0 0 43 0 96V352c0 46 32.4 84.4 75.6 93.8L36.7 484.7c-6.2 6.2-6.2 16.4 0 22.6s16.4 6.2 22.6 0L118.6 448H329.4l59.3 59.3c6.2 6.2 16.4 6.2 22.6 0s6.2-16.4 0-22.6l-38.9-38.9C415.6 436.4 448 398 448 352V96c0-53-43-96-96-96H96zm24 352a24 24 0 1 0 0-48 24 24 0 1 0 0 48zm232-24a24 24 0 1 0 -48 0 24 24 0 1 0 48 0z"/></svg>
